img/arrow-32.svg

<svg fill="none" height="11" viewBox="0 0 13 11" width="13" xmlns="http://www.w3.org/2000/svg"><path d="m12.1873 2.70561c.0812-.46048-.2263-.89959-.6868-.98078l-7.50386-1.323139c-.46047-.081194-.89958.226274-.98078.686749-.08119.46048.22628.89959.68675.98078l6.67009 1.17612-1.17609 6.67013c-.08119.46043.22628.89963.68675.98073.46044.0812.89954-.2262.98074-.6867zm-11.14922 6.04239c-.383014.26819-.476099.7961-.207906 1.17912.268196.38298.796106.47608 1.179126.20788zm9.82982-6.88292-9.82982 6.88292.97122 1.387 9.8298-6.88289z" fill="#fff"/></svg>

<svg width="13" height="11" viewBox="0 0 13 11" fill="none" xmlns="http://www.w3.org/2000/svg">
<path d="M12.1873 2.70561C12.2685 2.24513 11.961 1.80602 11.5005 1.72483L3.99664 0.401691C3.53617 0.320497 3.09706 0.627965 3.01586 1.08844C2.93467 1.54892 3.24214 1.98803 3.70261 2.06922L10.3727 3.24534L9.19661 9.91547C9.11542 10.3759 9.42289 10.8151 9.88336 10.8962C10.3438 10.9774 10.7829 10.67 10.8641 10.2095L12.1873 2.70561ZM1.03808 8.748C0.655066 9.01619 0.561981 9.5441 0.830174 9.92712C1.09837 10.3101 1.62628 10.4032 2.0093 10.135L1.03808 8.748ZM10.8679 1.86508L1.03808 8.748L2.0093 10.135L11.8391 3.25211L10.8679 1.86508Z" fill="white"/>
</svg>
